!!!SOCIAL_FUNCTION:	klokali songs
!!!PDT:	1939
!!!OTL: No_44_"Ten_Large_Diamonds".krn
!!!LANG: Non-Tone
!!!LING_GROUP: Wakashan
!!!REG: Pacific Northwest
**kern
*staff1
=1-
*clefF4
*k[f#c#g#d#a#]
*M2/4
4r
8r
8B\
=2
2c#\
=3
16c#\LL
16B\JJ
16r
16d#\
8.c#\L
16B\Jk
=4||
*M3/4
4B\
8.r
16B\
8.c#\L
16B\Jk
=5||
*M2/4
4c#\
4B\
=6
16c#\LK
8B\
16d#\Jk
8.c#\L
16B\Jk
=7
4B\
8r
16r
16d#\
=8||
*M3/4
4d#\
2d#\
=9
16d#\LL
16B\JJ
16r
16d#\
16d#\LL
16B\JJ
16r
16c#\
8.c#\L
16B\Jk
=10
4B\
8r
16r
16c#\
8.c#\L
16B\Jk
=11||
*M2/4
4c#\
4B\
=12
8.B\L
16B\Jk
8.B\L
16B\Jk
=13
4B\
4B\
=14
8r
8c#\
4c#\
=15||
*M3/4
8c#\L
8B\J
4B\
8r
8c#\
=16||
*M2/4
8c#\L
8B\J
8B\L
8A#\J
=17
4B\
8r
16r
16d#\
=18
4.d#\
8d#\
=19
8d#\L
16B\Jk
16r
8.d#\L
16d#\Jk
=20
8d#\L
8B\J
8B\
16r
16c#\
=21
4B\
8.B\L
16A#\Jk
=22
4B\
4r
=23
2c#\
=24
16c#\LL
16B\JJ
16r
16c#\
16c#\LK
8.B\J
=25
2c#\
==
*-
